icons/src/fluent/svg/presenter_24_regular.svg

<svg width="24" height="24" viewBox="0 0 24 24" fill="none" xmlns="http://www.w3.org/2000/svg">
<path d="M20.2449 12.9966C20.9537 12.9966 21.267 13.889 20.7137 14.3321L15.9958 18.1098V19.7541C15.9958 20.9968 14.9884 22.0041 13.7458 22.0041H10.2504C9.0078 22.0041 8.00044 20.9968 8.00044 19.7541V18.1099L3.28085 14.3322C2.72744 13.8892 3.04067 12.9966 3.74953 12.9966H20.2449ZM18.1083 14.4966H5.8867L9.21912 17.164C9.39693 17.3063 9.50044 17.5218 9.50044 17.7495V19.7541C9.50044 20.1683 9.83622 20.5041 10.2504 20.5041H13.7458C14.16 20.5041 14.4958 20.1683 14.4958 19.7541V17.7495C14.4958 17.5218 14.5993 17.3064 14.777 17.1641L18.1083 14.4966ZM8.75044 8.99954H15.2451C16.1633 8.99954 16.9163 9.70665 16.9893 10.606L16.9951 10.7495V11.9995H15.4951V10.7495C15.4951 10.6312 15.4129 10.5321 15.3025 10.5061L15.2451 10.4995H8.75044C8.63209 10.4995 8.53295 10.5818 8.50704 10.6922L8.50044 10.7495V11.9995H7.00044V10.7495C7.00044 9.83137 7.70755 9.07835 8.60691 9.00534L8.75044 8.99954H15.2451H8.75044ZM12.0004 2C13.6573 2 15.0004 3.34315 15.0004 5C15.0004 6.65685 13.6573 8 12.0004 8C10.3436 8 9.00044 6.65685 9.00044 5C9.00044 3.34315 10.3436 2 12.0004 2ZM12.0004 3.5C11.172 3.5 10.5004 4.17157 10.5004 5C10.5004 5.82843 11.172 6.5 12.0004 6.5C12.8289 6.5 13.5004 5.82843 13.5004 5C13.5004 4.17157 12.8289 3.5 12.0004 3.5Z" fill="#212121"/>
</svg>

<svg width="24" height="24" fill="none" viewBox="0 0 24 24" xmlns="http://www.w3.org/2000/svg"><path d="M20.244 12.997c.71 0 1.023.893.47 1.336l-4.719 3.777v1.645a2.25 2.25 0 0 1-2.25 2.25H10.25A2.25 2.25 0 0 1 8 19.755V18.11l-4.72-3.777c-.553-.443-.24-1.336.469-1.336h16.495Zm-2.136 1.5H5.886l3.333 2.668a.75.75 0 0 1 .281.585v2.005c0 .414.336.75.75.75h3.495a.75.75 0 0 0 .75-.75V17.75a.75.75 0 0 1 .282-.585l3.33-2.668ZM8.75 9h6.495a1.75 1.75 0 0 1 1.744 1.607l.006.143V12h-1.5v-1.25a.25.25 0 0 0-.193-.243l-.057-.007H8.75a.25.25 0 0 0-.243.193l-.007.057V12H7v-1.25a1.75 1.75 0 0 1 1.606-1.744L8.75 9h6.495H8.75ZM12 2a3 3 0 1 1 0 6 3 3 0 0 1 0-6Zm0 1.5a1.5 1.5 0 1 0 0 3 1.5 1.5 0 0 0 0-3Z" fill="#212121"/></svg>
